img/mark-star.svg

<svg width="24" height="23" viewBox="0 0 24 23" fill="none" xmlns="http://www.w3.org/2000/svg">
<path d="M23.9655 8.6935C23.8829 8.43892 23.6629 8.25339 23.398 8.21495L15.9579 7.13378L12.6305 0.39192C12.5121 0.151921 12.2676 0 12 0C11.7324 0 11.488 0.151921 11.3695 0.39192L8.04198 7.13378L0.602007 8.21495C0.337211 8.25339 0.117134 8.43892 0.0344468 8.69345C-0.0482872 8.94803 0.0207125 9.22745 0.212384 9.41425L5.59586 14.6621L4.32518 22.0722C4.2799 22.336 4.38837 22.6025 4.60488 22.7599C4.72737 22.8489 4.87244 22.8941 5.01822 22.8941C5.13016 22.8941 5.24247 22.8675 5.34532 22.8134L12 19.3147L18.6544 22.8133C18.8913 22.9379 19.1784 22.9171 19.3949 22.7598C19.6114 22.6025 19.7199 22.3359 19.6747 22.0721L18.4036 14.6621L23.7876 9.4142C23.9793 9.22745 24.0483 8.94803 23.9655 8.6935Z" fill="#D9D9D9"/>
</svg>

<svg width="24" height="23" fill="none" xmlns="http://www.w3.org/2000/svg"><path d="M23.965 8.694a.703.703 0 00-.567-.48l-7.44-1.08L12.63.392a.703.703 0 00-1.26 0L8.042 7.134l-7.44 1.08a.703.703 0 00-.39 1.2l5.384 5.248-1.27 7.41a.703.703 0 001.02.741L12 19.315l6.654 3.498a.703.703 0 001.02-.74l-1.27-7.41 5.384-5.249a.703.703 0 00.177-.72z" fill="#D9D9D9"/></svg>
